X:1
T: Bob Johnstone
C:
R:Strathspey
Q:128
K:A
M:4/4
L:1/16
|:c2|EA3 A3B c3B AE3|C3E A,3A G3A Bc3|EA3 A3B c3d ef3|e3c dcBA GB3 B3c|
EA3 A3B c3B AE3|C3E A,3A G3A Bc3|((3d2e2f2) ((3a2g2f2) ((3e2d2c2) ((3d2e2f2)|eE3 F3B A6:|
|:d2|ce3 a3b a3g fe3|fa3 A3c B3A Bd3|ce3 a3b a3g f3e|d3B E3e cA3 A3d|
ce3 a3b a3g fe3|fa3 e3c B3A Bc3|A3B AE3 d3e fa3|((3e2f2d2) ((3B2c2d2) cA3 A2:|
